SVG_Azure_All/Spatial Anchors Account.svg

<?xml version="1.0" encoding="UTF-8" standalone="no"?>
<!-- Generated by Microsoft Visio, SVG Export Spatial Anchors Account.svg Page-1 -->

<svg
   xmlns:dc="http://purl.org/dc/elements/1.1/"
   xmlns:cc="http://creativecommons.org/ns#"
   xmlns:rdf="http://www.w3.org/1999/02/22-rdf-syntax-ns#"
   xmlns:svg="http://www.w3.org/2000/svg"
   xmlns="http://www.w3.org/2000/svg"
   xmlns:sodipodi="http://sodipodi.sourceforge.net/DTD/sodipodi-0.dtd"
   xmlns:inkscape="http://www.inkscape.org/namespaces/inkscape"
   width="0.74799341in"
   height="0.78746569in"
   viewBox="0 0 53.855623 56.697817"
   xml:space="preserve"
   class="st5"
   version="1.1"
   id="svg64"
   sodipodi:docname="Spatial Anchors Account.svg"
   style="font-size:12px;overflow:visible;color-interpolation-filters:sRGB;fill:none;fill-rule:evenodd;stroke-linecap:square;stroke-miterlimit:3"
   inkscape:version="0.92.5 (2060ec1f9f, 2020-04-08)"><metadata
   id="metadata70"><rdf:RDF><cc:Work
       rdf:about=""><dc:format>image/svg+xml</dc:format><dc:type
         rdf:resource="http://purl.org/dc/dcmitype/StillImage" /></cc:Work></rdf:RDF></metadata><defs
   id="defs68" /><sodipodi:namedview
   pagecolor="#ffffff"
   bordercolor="#666666"
   borderopacity="1"
   objecttolerance="10"
   gridtolerance="10"
   guidetolerance="10"
   inkscape:pageopacity="0"
   inkscape:pageshadow="2"
   inkscape:window-width="640"
   inkscape:window-height="480"
   id="namedview66"
   showgrid="false"
   inkscape:zoom="1.7193066"
   inkscape:cx="35.905348"
   inkscape:cy="23.277772"
   inkscape:window-x="0"
   inkscape:window-y="0"
   inkscape:window-maximized="0"
   inkscape:current-layer="svg64" />
	<style
   type="text/css"
   id="style2">
	<![CDATA[
		.st1 {fill:#3999c6;stroke:none;stroke-linecap:butt;stroke-width:12.24}
		.st2 {fill:#ffffff;stroke:none;stroke-linecap:butt;stroke-width:12.24}
		.st3 {fill:#59b4d9;fill-opacity:0.4;stroke:none;stroke-linecap:butt;stroke-width:12.24}
		.st4 {fill:#804998;stroke:none;stroke-linecap:butt;stroke-width:12.24}
		.st5 {fill:none;fill-rule:evenodd;font-size:12px;overflow:visible;stroke-linecap:square;stroke-miterlimit:3}
	]]>
	</style>

	<g
   id="g62"
   transform="translate(-12.240131,-12.2351)">
		<title
   id="title4">Page-1</title>
		<g
   id="group1458-1"
   transform="translate(12.24,-34.0157)">
			<title
   id="title6">Spatial Anchors Account</title>
			<g
   id="group1459-2">
				<title
   id="title8">Sheet.1459</title>
				<g
   id="shape1460-3"
   transform="translate(1.34778,-2.49654)">
					<title
   id="title10">Sheet.1460</title>
					<path
   d="m 0,85.07 23.39,-16.74 23.4,16.74 -23.4,17.88 z"
   class="st1"
   id="path12"
   inkscape:connector-curvature="0"
   style="fill:#3999c6;stroke:none;stroke-width:12.23999977;stroke-linecap:butt" />
				</g>
				<g
   id="shape1461-5"
   transform="translate(7.07445,-6.7838)">
					<title
   id="title15">Sheet.1461</title>
					<path
   d="M 0,89.44 17.67,76.8 35.33,89.44 17.67,102.95 Z"
   class="st2"
   id="path17"
   inkscape:connector-curvature="0"
   style="fill:#ffffff;stroke:none;stroke-width:12.23999977;stroke-linecap:butt" />
				</g>
				<g
   id="shape1462-7"
   transform="translate(7.07445,-6.7838)">
					<title
   id="title20">Sheet.1462</title>
					<path
   d="M 0,89.44 17.67,76.8 35.33,89.44 17.67,102.95 Z"
   class="st3"
   id="path22"
   inkscape:connector-curvature="0"
   style="fill:#59b4d9;fill-opacity:0.4;stroke:none;stroke-width:12.23999977;stroke-linecap:butt" />
				</g>
				<g
   id="shape1463-9"
   transform="translate(36.1518,-12.5225)">
					<title
   id="title25">Sheet.1463</title>
					<ellipse
   cx="7.7952299"
   cy="95.093597"
   rx="7.7952299"
   ry="7.8550401"
   class="st2"
   id="ellipse27"
   style="fill:#ffffff;stroke:none;stroke-width:12.23999977;stroke-linecap:butt" />
				</g>
				<g
   id="shape1464-11"
   transform="translate(36.1518,-12.5225)">
					<title
   id="title30">Sheet.1464</title>
					<path
   d="m 7.8,90.65 c 2.42,0 4.4,2 4.4,4.44 0,2.45 -1.98,4.44 -4.4,4.44 -2.43,0 -4.41,-1.99 -4.41,-4.44 0,-2.44 1.98,-4.44 4.41,-4.44 z m 0,-3.41 a 7.79523,7.85504 -180 1 0 0,15.71 7.79523,7.85504 -180 0 0 0,-15.71 z"
   class="st1"
   id="path32"
   inkscape:connector-curvature="0"
   style="fill:#3999c6;stroke:none;stroke-width:12.23999977;stroke-linecap:butt" />
				</g>
				<g
   id="shape1465-13"
   transform="translate(34.0358,-19.2392)">
					<title
   id="title35">Sheet.1465</title>
					<path
   d="M 19.82,76.25 C 19.82,70.38 15.38,65.49 9.91,65.49 4.44,65.49 0,70.18 0,76.25 c 0,6.08 9.91,22.71 9.91,26.7 0,-3.99 9.91,-20.82 9.91,-26.7 z"
   class="st4"
   id="path37"
   inkscape:connector-curvature="0"
   style="fill:#804998;stroke:none;stroke-width:12.23999977;stroke-linecap:butt" />
				</g>
				<g
   id="shape1466-15"
   transform="translate(39.541,-42.1212)">
					<title
   id="title40">Sheet.1466</title>
					<ellipse
   cx="4.4060001"
   cy="98.508904"
   rx="4.4060001"
   ry="4.4398098"
   class="st2"
   id="ellipse42"
   style="fill:#ffffff;stroke:none;stroke-width:12.23999977;stroke-linecap:butt" />
				</g>
				<g
   id="shape1467-17"
   transform="translate(19.2056,-28.4603)">
					<title
   id="title45">Sheet.1467</title>
					<ellipse
   cx="5.5357399"
   cy="97.370399"
   rx="5.5357399"
   ry="5.5782199"
   class="st4"
   id="ellipse47"
   style="fill:#804998;stroke:none;stroke-width:12.23999977;stroke-linecap:butt" />
				</g>
				<g
   id="shape1468-19"
   transform="translate(0,-14.7994)">
					<title
   id="title50">Sheet.1468</title>
					<ellipse
   cx="5.5357399"
   cy="97.370399"
   rx="5.5357399"
   ry="5.5782199"
   class="st4"
   id="ellipse52"
   style="fill:#804998;stroke:none;stroke-width:12.23999977;stroke-linecap:butt" />
				</g>
				<g
   id="shape1469-21"
   transform="translate(19.2056)">
					<title
   id="title55">Sheet.1469</title>
					<ellipse
   cx="5.5357399"
   cy="97.370399"
   rx="5.5357399"
   ry="5.5782199"
   class="st4"
   id="ellipse57"
   style="fill:#804998;stroke:none;stroke-width:12.23999977;stroke-linecap:butt" />
				</g>
			</g>
		</g>
	</g>
</svg>

<?xml version="1.0" encoding="UTF-8" standalone="no"?>
<!DOCTYPE svg PUBLIC "-//W3C//DTD SVG 1.1//EN" "http://www.w3.org/Graphics/SVG/1.1/DTD/svg11.dtd">
<!-- Generated by Microsoft Visio, SVG Export Spatial Anchors Account.svg Page-1 -->
<svg xmlns="http://www.w3.org/2000/svg" xmlns:xlink="http://www.w3.org/1999/xlink" xmlns:ev="http://www.w3.org/2001/xml-events"
		width="1.08803in" height="1.42984in" viewBox="0 0 78.3383 102.949" xml:space="preserve" color-interpolation-filters="sRGB"
		class="st5">
	<style type="text/css">
	<![CDATA[
		.st1 {fill:#3999c6;stroke:none;stroke-linecap:butt;stroke-width:12.24}
		.st2 {fill:#ffffff;stroke:none;stroke-linecap:butt;stroke-width:12.24}
		.st3 {fill:#59b4d9;fill-opacity:0.4;stroke:none;stroke-linecap:butt;stroke-width:12.24}
		.st4 {fill:#804998;stroke:none;stroke-linecap:butt;stroke-width:12.24}
		.st5 {fill:none;fill-rule:evenodd;font-size:12px;overflow:visible;stroke-linecap:square;stroke-miterlimit:3}
	]]>
	</style>

	<g>
		<title>Page-1</title>
		<g id="group1443-1" transform="translate(12.24,-34.0157)">
			<title>Spatial Anchors Account</title>
			<g id="group1444-2">
				<title>Sheet.1444</title>
				<g id="shape1445-3" transform="translate(1.34778,-2.49654)">
					<title>Sheet.1445</title>
					<path d="M0 85.07 L23.39 68.33 L46.79 85.07 L23.39 102.95 L0 85.07 Z" class="st1"/>
				</g>
				<g id="shape1446-5" transform="translate(7.07445,-6.7838)">
					<title>Sheet.1446</title>
					<path d="M0 89.44 L17.67 76.8 L35.33 89.44 L17.67 102.95 L0 89.44 Z" class="st2"/>
				</g>
				<g id="shape1447-7" transform="translate(7.07445,-6.7838)">
					<title>Sheet.1447</title>
					<path d="M0 89.44 L17.67 76.8 L35.33 89.44 L17.67 102.95 L0 89.44 Z" class="st3"/>
				</g>
				<g id="shape1448-9" transform="translate(36.1518,-12.5225)">
					<title>Sheet.1448</title>
					<ellipse cx="7.79523" cy="95.0936" rx="7.79523" ry="7.85504" class="st2"/>
				</g>
				<g id="shape1449-11" transform="translate(36.1518,-12.5225)">
					<title>Sheet.1449</title>
					<path d="M7.8 90.65 C10.22 90.65 12.2 92.65 12.2 95.09 C12.2 97.54 10.22 99.53 7.8 99.53 C5.37 99.53 3.39 97.54
								 3.39 95.09 C3.39 92.65 5.37 90.65 7.8 90.65 ZM7.8 87.24 A7.79523 7.85504 -180 1 0 7.8 102.95 A7.79523
								 7.85504 -180 0 0 7.8 87.24 Z" class="st1"/>
				</g>
				<g id="shape1450-13" transform="translate(34.0358,-19.2392)">
					<title>Sheet.1450</title>
					<path d="M19.82 76.25 C19.82 70.38 15.38 65.49 9.91 65.49 C4.44 65.49 0 70.18 0 76.25 C0 82.33 9.91 98.96 9.91
								 102.95 C9.91 98.96 19.82 82.13 19.82 76.25 Z" class="st4"/>
				</g>
				<g id="shape1451-15" transform="translate(39.541,-42.1212)">
					<title>Sheet.1451</title>
					<ellipse cx="4.406" cy="98.5089" rx="4.406" ry="4.43981" class="st2"/>
				</g>
				<g id="shape1452-17" transform="translate(19.2056,-28.4603)">
					<title>Sheet.1452</title>
					<ellipse cx="5.53574" cy="97.3704" rx="5.53574" ry="5.57822" class="st4"/>
				</g>
				<g id="shape1453-19" transform="translate(0,-14.7994)">
					<title>Sheet.1453</title>
					<ellipse cx="5.53574" cy="97.3704" rx="5.53574" ry="5.57822" class="st4"/>
				</g>
				<g id="shape1454-21" transform="translate(19.2056,5.68434E-14)">
					<title>Sheet.1454</title>
					<ellipse cx="5.53574" cy="97.3704" rx="5.53574" ry="5.57822" class="st4"/>
				</g>
			</g>
		</g>
	</g>
</svg>
